assets/img/nt-avatar-bue.svg

<svg width="157" height="90" viewBox="0 0 157 90" fill="none" xmlns="http://www.w3.org/2000/svg">
<path fill-rule="evenodd" clip-rule="evenodd" d="M126.113 77.3214C124.649 78.1049 123.133 78.9122 121.079 79.1179C118.518 79.3714 116.183 78.7732 114.121 78.2387C112.771 77.8907 111.489 77.5627 110.373 77.5422C109.019 77.5152 107.594 78.2747 106.11 79.0819C104.835 79.7785 103.517 80.4956 102.026 80.8313C101.345 80.9818 100.593 81.0494 99.8206 81.0494C97.0189 81.0494 93.8882 80.2061 92.2299 79.6878V76.6199C94.0109 77.25 98.7092 78.5911 101.377 77.986C102.465 77.7449 103.548 77.155 104.695 76.5302L104.697 76.5292L104.711 76.5214C106.468 75.5698 108.277 74.5901 110.432 74.6297C111.893 74.6613 113.334 75.0291 114.857 75.4209L114.884 75.4278C116.791 75.9166 118.761 76.4213 120.789 76.2166C122.259 76.0738 123.399 75.4652 124.719 74.7559L124.737 74.7465C126.539 73.7833 128.589 72.6869 131.681 72.7658C134.381 72.8206 135.533 73.3435 136.546 73.8066C137.469 74.2264 138.268 74.59 140.639 74.6297C142.683 74.6729 143.396 74.1916 144.467 73.4685L144.47 73.4662L144.475 73.4627C145.785 72.5841 147.42 71.4869 151.369 71.2414V74.1627C148.361 74.3758 147.268 75.1044 146.116 75.88C144.921 76.6874 143.559 77.5858 140.584 77.5422C137.612 77.4876 136.403 76.9407 135.337 76.4583L135.327 76.4539L135.322 76.4516C134.458 76.0609 133.707 75.7218 131.618 75.6743C129.288 75.6389 127.744 76.4501 126.113 77.3214ZM151.369 65.9892C148.361 66.1995 147.268 66.9316 146.116 67.7073C144.921 68.5111 143.555 69.4246 140.584 69.3698C137.603 69.3138 136.392 68.7677 135.327 68.2815L135.31 68.2737C134.451 67.8852 133.698 67.5449 131.618 67.502C129.288 67.4498 127.744 68.2738 126.117 69.144C124.649 69.9312 123.129 70.7424 121.083 70.9412C118.53 71.1967 116.204 70.6024 114.149 70.0774L114.121 70.0702C112.767 69.7178 111.493 69.3937 110.373 69.3698C109.013 69.3231 107.644 70.0739 106.194 70.8694L106.114 70.9134L106.1 70.9209C104.826 71.6113 103.512 72.3232 102.026 72.6546C101.345 72.8128 100.596 72.8765 99.8206 72.8765C98.5106 72.8765 97.1295 72.6905 95.859 72.4405C97.011 71.5857 98.1629 70.7552 99.302 69.9514C100.059 69.9872 100.771 69.9514 101.377 69.8213C102.462 69.572 103.542 68.9858 104.69 68.363L104.701 68.3568L104.703 68.3556C106.46 67.4016 108.272 66.4176 110.432 66.4569C111.896 66.4878 113.334 66.8563 114.861 67.248C116.773 67.7431 118.751 68.2456 120.793 68.0442C122.255 67.9014 123.399 67.2917 124.723 66.5835C126.528 65.6175 128.575 64.5255 131.681 64.5921C134.374 64.648 135.527 65.171 136.538 65.6294L136.546 65.633L136.563 65.6408C137.483 66.0536 138.283 66.4128 140.639 66.4569C142.692 66.4967 143.396 66.0213 144.468 65.2985L144.47 65.2972C145.78 64.4109 147.418 63.3175 151.369 63.0687V65.9892ZM0 60.5432C0 60.5432 14.9328 52.0856 32.2047 40.1841C30.4433 40.592 28.6623 40.9482 26.8656 41.1698C25.33 41.3677 23.8891 41.4587 22.5198 41.4587C19.9234 41.4587 17.6161 41.1142 15.5464 40.4137C10.1321 38.5733 6.51451 33.9705 6.11089 28.3902C5.71842 22.9753 9.02336 17.5417 13.9549 15.472C17.6519 13.9239 23.3506 13.7214 27.1268 16.9401C30.3048 19.651 31.916 23.6126 31.334 27.2778C30.5665 32.0823 25.6268 35.7358 20.3232 35.4193C17.3313 35.2368 14.7545 33.7567 13.4247 31.4571C11.8019 28.6589 12.1226 25.2278 14.244 22.7136C16.1515 20.466 19.211 19.7181 22.0374 20.8147C23.5567 21.3996 24.7361 22.678 25.1914 24.2379C25.6152 25.6862 25.3497 27.2146 24.4671 28.4218C23.2639 30.0598 20.7273 30.8794 19.0412 30.1709C18.2929 29.8583 17.7546 29.193 17.4975 28.4574C17.3667 28.1758 17.2876 27.8597 17.2876 27.5317C17.2876 27.3015 17.3313 27.0881 17.3941 26.8816C17.3959 26.8724 17.397 26.8619 17.3982 26.8511C17.3999 26.8344 17.4018 26.817 17.4064 26.8026H17.4185C17.723 25.9164 18.55 25.2782 19.5394 25.2782C20.6636 25.2782 21.5897 26.1101 21.7523 27.1869C21.9302 27.0723 22.0922 26.933 22.2153 26.771C22.69 26.118 22.6344 25.461 22.5044 25.0214C22.2983 24.3051 21.7286 23.6877 21.0275 23.4189C19.3021 22.7501 17.5211 23.1729 16.3773 24.5195C15.0277 26.118 14.8178 28.2904 15.8427 30.0558C16.7022 31.5444 18.4435 32.5022 20.4892 32.6287C23.9053 32.8344 27.958 30.6811 28.5716 26.8342C28.9946 24.1668 27.7165 21.119 25.3141 19.0651C22.5634 16.7217 18.0633 16.781 15.0397 18.0515C11.2361 19.6421 8.60003 24.0048 8.90105 28.1877C9.22173 32.6287 12.1106 36.2976 16.4444 37.766C19.1875 38.6921 22.4882 38.8982 26.5209 38.3993C29.2239 38.0644 31.9799 37.3772 34.6537 36.7105L34.7852 36.6778C35.5686 36.4794 36.3528 36.2856 37.1323 36.0996C37.2398 36.0733 37.3472 36.0469 37.4547 36.0205C37.7987 35.936 38.1429 35.8515 38.49 35.7674C40.5839 34.2673 42.6855 32.7275 44.7791 31.1561C44.7988 31.1561 44.8223 31.1561 44.8421 31.1523C44.8185 31.1561 44.7988 31.1561 44.7753 31.1561C44.5534 31.1685 44.3318 31.1762 44.1099 31.1762C43.0849 31.1762 42.0557 31.0851 41.0385 30.8713C36.4635 29.8977 33.0479 26.3235 32.3278 21.776C31.5875 17.0982 33.9069 12.4865 38.0979 10.3022C41.4781 8.54464 46.7022 8.33519 50.1614 11.3434C53.4151 14.1729 54.8243 19.9276 51.6418 23.6679C50.1656 25.4096 47.8027 26.5655 45.329 26.7591C43.0969 26.937 41.0269 26.3195 39.5107 25.0214C37.362 23.1858 36.7838 20.0066 38.106 17.2957C39.3366 14.7706 41.8462 13.4764 44.4978 14.0148C46.0414 14.323 47.4231 15.3367 48.0999 16.6506C48.6695 17.7512 48.7088 18.9821 48.2025 20.1183C47.5021 21.7009 45.4679 22.8173 43.8491 22.4804C43.4018 22.3895 43.0294 22.2433 42.7288 22.0497C42.3055 21.8234 41.9647 21.4638 41.7791 21.0202C41.6803 20.8147 41.6208 20.5806 41.6208 20.3395C41.6208 20.3272 41.6229 20.3169 41.625 20.3072C41.6268 20.2982 41.6285 20.2897 41.6285 20.2803C41.6285 20.2696 41.6265 20.2593 41.6245 20.2492C41.6227 20.2395 41.6208 20.2302 41.6208 20.221C41.6208 19.0691 42.5547 18.1394 43.7063 18.1394C44.4781 18.1394 45.1508 18.5662 45.5074 19.1916C45.5667 19.1244 45.6177 19.0572 45.6497 18.9821C45.8118 18.6176 45.8003 18.2886 45.6223 17.933C45.329 17.3708 44.6564 16.8956 43.9479 16.7534C41.862 16.3384 40.8764 17.9962 40.6194 18.5188C39.9981 19.8011 39.9502 21.7167 41.3275 22.9003C42.2776 23.7114 43.6195 24.0878 45.1075 23.9722C46.8291 23.8378 48.519 23.0267 49.5127 21.8629C51.5789 19.4287 50.5932 15.4197 48.3295 13.4487C45.8434 11.2881 41.8659 11.4936 39.3883 12.7839C36.2617 14.4149 34.532 17.846 35.0863 21.3413C35.6242 24.7368 38.189 27.4082 41.6247 28.1333C44.1775 28.6826 47.0032 28.2232 49.3502 27.6572H49.3545C60.7809 18.748 71.4552 9.06726 77.8471 0.0118814C77.8471 -0.0423681 77.8981 0.091923 77.9994 0.358121C78.7848 2.42367 82.5903 12.4312 88.9921 3.92211C88.7587 4.15526 92.1586 13.1079 102.006 22.7896C107.191 22.2038 112.625 21.7997 117.928 22.2354C120.248 22.4251 123.75 22.7136 126.343 24.1707C129.101 25.7297 130.534 28.8012 129.83 31.6432C129.213 34.1326 127.071 35.601 124.855 36.8124L123.429 37.5599C132.208 41.6923 142.997 44.9339 156.146 46.2753C155.861 46.2622 155.499 46.2479 155.073 46.2329C155.497 46.2479 155.857 46.2622 156.142 46.2753C156.7 46.295 157 46.3151 157 46.3151C157 46.3151 139.59 47.4632 116.456 59.5024C115.918 59.3801 115.384 59.2454 114.861 59.1069C113.954 58.8773 113.08 58.6797 112.209 58.5291C111.616 58.4261 111.026 58.3311 110.432 58.3153C109.641 58.303 108.913 58.4539 108.204 58.6596C106.965 59.0196 105.817 59.6097 104.701 60.2148C104.04 60.5791 103.399 60.9037 102.766 61.1769C102.298 61.3826 101.84 61.5724 101.377 61.6755C100.41 61.8974 99.1726 61.8542 97.909 61.687C95.6852 61.3941 93.3657 60.7061 92.2299 60.3063V63.3735C93.8882 63.8956 97.0189 64.735 99.8206 64.735C100.593 64.735 101.345 64.6713 102.026 64.5216C103.509 64.1832 104.82 63.4727 106.091 62.7838L106.114 62.7715L106.165 62.7438C107.255 62.1489 108.303 61.5769 109.331 61.3432C109.348 61.3391 109.363 61.3381 109.378 61.337C109.393 61.3361 109.407 61.335 109.423 61.3313C109.739 61.2641 110.061 61.2201 110.373 61.2286C110.524 61.2314 110.684 61.2507 110.845 61.2701C110.907 61.2775 110.968 61.2849 111.03 61.2915C111.54 61.3509 112.067 61.4382 112.629 61.5647C108.331 63.967 103.866 66.7455 99.298 69.9514C96.7255 69.8405 93.6034 68.9345 92.2299 68.4436V71.5143C92.6849 71.6532 93.2507 71.8192 93.8844 71.9862C94.4895 72.1445 95.1547 72.3026 95.859 72.4405C90.0766 76.7472 84.1636 81.7497 78.2627 87.5797C78.2367 87.5797 78.1478 87.4261 78.0011 87.1725C76.8112 85.1152 71.8168 76.4799 65.6962 89.9503C65.9298 89.9503 53.8623 57.9434 0 60.5432ZM116.456 59.5024C115.193 60.1553 113.923 60.8446 112.633 61.5647C113.115 61.6755 113.61 61.7982 114.125 61.9283C116.183 62.4589 118.518 63.057 121.079 62.8035C123.133 62.6017 124.649 61.7943 126.113 61.0067C127.744 60.1357 129.288 59.3168 131.618 59.3639C133.7 59.4072 134.452 59.7477 135.312 60.137L135.327 60.1438L135.337 60.1484C136.404 60.6305 137.613 61.177 140.584 61.2286C143.551 61.2876 144.921 60.373 146.116 59.566C147.268 58.7943 148.361 58.0622 151.369 57.8523V54.9313C147.414 55.1768 145.78 56.2728 144.47 57.1557L144.468 57.1572C143.396 57.8803 142.688 58.3586 140.639 58.3192C138.277 58.2758 137.475 57.9144 136.557 57.5008L136.546 57.496C135.533 57.033 134.381 56.5109 131.681 56.4514C128.59 56.3802 126.54 57.4725 124.739 58.4321L124.719 58.4423C123.399 59.1544 122.259 59.7602 120.789 59.9061C119.31 60.0527 117.869 59.827 116.456 59.5024ZM90.3301 53.0789C107.392 47.3003 130.186 46.1642 144.212 46.0854H144.007C134.841 44.2806 126.798 41.1026 122.673 39.1668C121.598 38.6601 120.544 38.1342 119.523 37.5997C114.006 34.7185 107.135 30.2817 102.294 25.5835C102.477 25.5598 101.091 25.706 100.169 25.8166C85.26 27.6413 70.252 31.0496 56.1539 34.378C52.4101 35.2688 48.6695 36.1753 44.9373 37.0814C44.0657 37.2924 43.1945 37.5045 42.3236 37.7165C40.8101 38.0849 39.2976 38.4531 37.7853 38.8149C37.6449 38.8485 37.5014 38.8841 37.3578 38.9197C37.2143 38.9553 37.0708 38.9909 36.9304 39.0245C30.1427 43.6198 16.583 52.5846 9.50231 57.1676C9.4944 57.1696 9.48754 57.1725 9.48067 57.1753C9.47381 57.1782 9.46694 57.1811 9.45904 57.183C42.8276 45.9902 81.1516 39.674 81.5834 39.674C72.4208 45.7254 77.0791 51.0564 77.0791 51.0564C80.083 54.0842 82.9013 54.4956 85.5846 54.1437C86.7202 53.9948 87.8292 53.7098 88.9179 53.43C89.3923 53.3081 89.8629 53.1871 90.3301 53.0789ZM120.75 36.2388C120.75 36.2385 120.614 36.1672 120.343 36.0247L123.533 34.3464C125.175 33.4519 126.763 32.4111 127.118 30.9701C127.522 29.3436 126.635 27.5465 124.969 26.609C122.918 25.4505 119.785 25.1929 117.706 25.022L117.698 25.0214C113.535 24.6815 109.355 24.8554 104.709 25.3108C108.897 29.0274 114.054 32.7473 120.343 36.0286C120.614 36.169 120.75 36.2392 120.75 36.2388ZM99.9061 23.0346C99.933 23.0317 99.9599 23.0287 99.9876 23.0267C96.0971 19.2825 90.552 11.9214 88.3589 7.23464C86.958 8.45375 85.5332 9.0712 84.0883 9.0712C81.524 9.0712 79.2915 7.20698 77.4434 3.52694C72.496 9.95738 62.8308 19.0967 53.5849 26.5615C54.0564 26.4341 54.5273 26.3076 54.9942 26.1851C58.4616 25.2713 68.9379 22.6187 68.9379 22.6187L68.5146 25.6349C68.5146 25.6349 59.688 27.8399 55.7104 28.8881L55.6527 28.9035C54.0932 29.3178 52.5328 29.7324 50.9691 30.135C50.1614 30.3488 49.2712 30.5549 48.345 30.7289C46.4969 32.1298 44.5417 33.5828 43.0892 34.6513C43.4809 34.556 43.8765 34.461 44.2763 34.3661C48.0161 33.4558 51.7607 32.5458 55.5124 31.659C69.6819 28.3112 84.7772 24.887 99.8246 23.0425C99.8523 23.0406 99.8792 23.0376 99.9061 23.0346ZM50.2687 27.4319C50.8385 27.2814 51.4123 27.1309 51.9874 26.98C52.2427 26.9131 52.4983 26.846 52.7539 26.7789C52.3816 26.8767 52.0093 26.9743 51.6374 27.0717C51.179 27.1919 50.7212 27.3119 50.2648 27.4319C50.2347 27.4394 50.204 27.4469 50.1729 27.4545C50.0896 27.4749 50.004 27.4958 49.9202 27.5188C50.0183 27.4919 50.1188 27.4678 50.2176 27.4442C50.2347 27.4401 50.2517 27.436 50.2687 27.4319Z" fill="#0247AD"/>
</svg>

<svg width="157" height="90" fill="none" xmlns="http://www.w3.org/2000/svg"><path fill-rule="evenodd" clip-rule="evenodd" d="M126.113 77.321c-1.464.784-2.98 1.591-5.034 1.797-2.561.253-4.896-.345-6.958-.88-1.35-.347-2.632-.675-3.748-.696-1.354-.027-2.779.733-4.263 1.54-1.275.697-2.593 1.414-4.084 1.75-.681.15-1.433.217-2.205.217-2.802 0-5.933-.843-7.591-1.361V76.62c1.78.63 6.48 1.971 9.147 1.366 1.088-.241 2.171-.831 3.318-1.456h.002l.014-.009c1.757-.951 3.566-1.93 5.721-1.891 1.461.031 2.902.4 4.425.79l.027.008c1.907.489 3.877.993 5.905.789 1.47-.143 2.61-.752 3.93-1.461l.018-.01c1.802-.963 3.852-2.06 6.944-1.98 2.7.055 3.852.578 4.865 1.04.923.42 1.722.784 4.093.824 2.044.043 2.757-.438 3.828-1.161l.003-.003.005-.003c1.31-.879 2.945-1.976 6.894-2.222v2.922c-3.008.213-4.101.941-5.253 1.717-1.195.807-2.557 1.706-5.532 1.662-2.972-.054-4.181-.601-5.247-1.084l-.01-.004-.005-.002c-.864-.391-1.615-.73-3.704-.778-2.33-.035-3.874.776-5.505 1.647zm25.256-11.332c-3.008.21-4.101.943-5.253 1.718-1.195.804-2.561 1.718-5.532 1.663-2.981-.056-4.192-.602-5.257-1.089l-.017-.007c-.859-.389-1.612-.73-3.692-.772-2.33-.052-3.874.772-5.501 1.642-1.468.787-2.988 1.598-5.034 1.797-2.553.256-4.879-.339-6.934-.864l-.028-.007c-1.354-.352-2.628-.676-3.748-.7-1.36-.047-2.729.704-4.179 1.5l-.08.043-.014.008c-1.274.69-2.588 1.402-4.074 1.734-.681.158-1.43.221-2.205.221-1.31 0-2.692-.186-3.962-.436a178.148 178.148 0 013.443-2.489c.757.036 1.469 0 2.075-.13 1.085-.249 2.165-.835 3.313-1.458l.011-.006.002-.001c1.757-.954 3.569-1.938 5.729-1.9 1.464.032 2.902.4 4.429.792 1.912.495 3.89.998 5.932.796 1.462-.143 2.606-.752 3.93-1.46 1.805-.966 3.852-2.059 6.958-1.992 2.693.056 3.846.579 4.857 1.037l.008.004.017.008c.92.413 1.72.772 4.076.816 2.053.04 2.757-.436 3.829-1.158l.002-.002c1.31-.886 2.948-1.98 6.899-2.228v2.92zM0 60.543s14.933-8.457 32.205-20.359c-1.762.408-3.543.764-5.34.986a33.92 33.92 0 01-4.345.289c-2.597 0-4.904-.345-6.974-1.045-5.414-1.84-9.031-6.444-9.435-12.024-.393-5.415 2.912-10.848 7.844-12.918 3.697-1.548 9.396-1.75 13.172 1.468 3.178 2.711 4.789 6.673 4.207 10.338-.767 4.804-5.707 8.458-11.01 8.141-2.993-.182-5.57-1.662-6.9-3.962-1.622-2.798-1.301-6.23.82-8.743 1.907-2.248 4.967-2.996 7.793-1.9a5.275 5.275 0 013.154 3.424 4.773 4.773 0 01-.724 4.184c-1.203 1.638-3.74 2.457-5.426 1.749-.748-.313-1.286-.978-1.544-1.714a2.205 2.205 0 01-.21-.925c0-.23.044-.444.107-.65l.004-.03a.25.25 0 01.008-.05h.013a2.241 2.241 0 012.12-1.524c1.125 0 2.05.832 2.213 1.909a1.81 1.81 0 00.463-.416c.475-.653.42-1.31.29-1.75a2.498 2.498 0 00-1.477-1.602c-1.726-.669-3.507-.246-4.65 1.1-1.35 1.599-1.56 3.771-.535 5.537.86 1.488 2.6 2.446 4.646 2.573 3.416.205 7.469-1.948 8.083-5.795.423-2.667-.855-5.715-3.258-7.769-2.75-2.343-7.25-2.284-10.274-1.014-3.804 1.591-6.44 5.954-6.139 10.137.32 4.44 3.21 8.11 7.543 9.578 2.744.926 6.044 1.132 10.077.633 2.703-.335 5.459-1.022 8.133-1.688l.131-.033a175.36 175.36 0 012.347-.578l.323-.08 1.035-.253c2.094-1.5 4.195-3.04 6.29-4.61.019 0 .042 0 .062-.005-.023.004-.043.004-.067.004a14.912 14.912 0 01-3.737-.285c-4.574-.973-7.99-4.547-8.71-9.095a10.986 10.986 0 015.77-11.474c3.38-1.757 8.604-1.967 12.063 1.041 3.254 2.83 4.663 8.585 1.48 12.325-1.475 1.742-3.838 2.898-6.312 3.091-2.232.178-4.302-.44-5.818-1.738-2.149-1.835-2.727-5.014-1.405-7.725 1.23-2.525 3.74-3.82 6.392-3.281 1.543.308 2.925 1.322 3.602 2.636.57 1.1.609 2.331.102 3.467-.7 1.583-2.734 2.7-4.353 2.362a3.249 3.249 0 01-1.12-.43 2.09 2.09 0 01-.95-1.03 1.58 1.58 0 01-.158-.68c0-.013.002-.023.004-.033a.134.134 0 00.004-.027.16.16 0 00-.005-.03l-.003-.029c0-1.152.934-2.082 2.085-2.082.772 0 1.445.427 1.801 1.053a.796.796 0 00.143-.21c.162-.364.15-.693-.028-1.049-.293-.562-.966-1.037-1.674-1.18-2.086-.415-3.072 1.243-3.329 1.766-.62 1.282-.669 3.198.709 4.381.95.811 2.291 1.188 3.78 1.072 1.721-.134 3.411-.945 4.405-2.11 2.066-2.433 1.08-6.442-1.183-8.413-2.487-2.16-6.464-1.955-8.942-.665a8.185 8.185 0 00-4.302 8.557c.538 3.396 3.103 6.067 6.539 6.792 2.553.55 5.378.09 7.725-.476h.005C60.78 18.748 71.454 9.067 77.847.012c0-.054.051.08.152.346.786 2.066 4.591 12.073 10.993 3.564-.233.233 3.167 9.186 13.014 18.868 5.185-.586 10.619-.99 15.922-.555 2.32.19 5.822.479 8.415 1.936 2.758 1.559 4.191 4.63 3.487 7.472-.617 2.49-2.759 3.958-4.975 5.17l-1.426.747c8.779 4.132 19.568 7.374 32.717 8.715a103.754 103.754 0 00-.004 0c.558.02.858.04.858.04s-17.41 1.148-40.544 13.187a46.56 46.56 0 01-1.595-.395 35.326 35.326 0 00-2.652-.578c-.593-.103-1.183-.198-1.777-.214-.791-.012-1.519.139-2.228.345-1.239.36-2.387.95-3.503 1.555-.661.364-1.302.689-1.935.962-.468.206-.926.395-1.389.498-.967.222-2.204.18-3.468.012-2.224-.293-4.543-.98-5.68-1.38v3.066c1.66.523 4.79 1.362 7.592 1.362.772 0 1.524-.064 2.205-.213 1.483-.339 2.794-1.05 4.065-1.738l.023-.012.051-.028c1.09-.595 2.138-1.167 3.166-1.4.017-.005.032-.006.047-.007a.259.259 0 00.045-.006 4.08 4.08 0 01.95-.102c.151.002.311.022.472.041a15.284 15.284 0 011.784.295 154.092 154.092 0 00-13.331 8.386c-2.573-.11-5.695-1.016-7.068-1.507v3.07c.455.14 1.02.305 1.654.472.606.158 1.27.317 1.975.454a166.696 166.696 0 00-17.596 15.14c-.026 0-.115-.154-.262-.407-1.19-2.058-6.184-10.693-12.305 2.777.234 0-11.834-32.007-65.696-29.407zm116.456-1.04a135.766 135.766 0 00-3.823 2.062c.482.11.977.233 1.492.363 2.058.53 4.393 1.129 6.954.876 2.054-.202 3.57-1.01 5.034-1.797 1.631-.871 3.175-1.69 5.505-1.643 2.082.043 2.834.384 3.694.773l.015.007.01.004c1.067.482 2.276 1.029 5.247 1.08 2.967.06 4.337-.855 5.532-1.662 1.152-.772 2.245-1.504 5.253-1.714v-2.92c-3.955.245-5.589 1.34-6.899 2.224l-.002.001c-1.072.723-1.78 1.202-3.829 1.162-2.362-.043-3.164-.405-4.082-.818l-.011-.005c-1.013-.463-2.165-.985-4.865-1.045-3.091-.07-5.141 1.021-6.942 1.981l-.02.01c-1.32.712-2.46 1.318-3.93 1.464-1.479.147-2.92-.079-4.333-.404zM90.33 53.078c17.062-5.779 39.856-6.915 53.882-6.994h-.205c-9.166-1.804-17.209-4.982-21.334-6.918a84.31 84.31 0 01-3.15-1.567c-5.517-2.882-12.388-7.318-17.229-12.017.183-.023-1.203.123-2.125.234-14.909 1.824-29.917 5.233-44.015 8.561-3.744.89-7.485 1.797-11.217 2.703l-2.613.636c-1.514.368-3.026.736-4.539 1.098l-.427.105-.428.105c-6.787 4.595-20.347 13.56-27.428 18.143l-.021.007a.136.136 0 01-.022.008C42.828 45.99 81.152 39.674 81.583 39.674c-9.162 6.051-4.504 11.382-4.504 11.382 3.004 3.028 5.822 3.44 8.506 3.088 1.135-.15 2.244-.434 3.333-.714a59.31 59.31 0 011.412-.351zm30.42-16.84l-.407-.214 3.19-1.679c1.642-.894 3.23-1.935 3.585-3.376.404-1.626-.483-3.423-2.149-4.361-2.051-1.159-5.184-1.416-7.263-1.587h-.008c-4.163-.34-8.343-.167-12.989.289 4.188 3.716 9.345 7.436 15.634 10.718l.407.21zM99.906 23.035l.082-.008c-3.89-3.745-9.436-11.106-11.63-15.792-1.4 1.219-2.825 1.836-4.27 1.836-2.564 0-4.796-1.864-6.645-5.544-4.947 6.43-14.612 15.57-23.858 23.034.471-.127.942-.253 1.41-.376 3.467-.914 13.943-3.566 13.943-3.566l-.423 3.016s-8.827 2.205-12.805 3.253l-.057.015c-1.56.415-3.12.83-4.684 1.232-.808.214-1.698.42-2.624.594a479.67 479.67 0 01-5.256 3.922l1.187-.285c3.74-.91 7.485-1.82 11.236-2.707 14.17-3.348 29.265-6.772 44.313-8.616l.081-.008zM50.27 27.432l1.718-.452.767-.201-1.117.293-1.372.36-.092.023c-.083.02-.169.04-.253.064a9.296 9.296 0 01.349-.087z" fill="#0247AD"/></svg>
